X:1
T:Full bags, a brisk bottle
T:Full bags, a brisk bottle
T:Henry Purcell (1659-1695)
C:Henry Purcell (1659-1695)
%%score [ 1 2 3 ]
L:1/8
M:3/4
K:G
V:1 treble nm="I"
V:2 treble nm="II"
V:3 treble nm="III"
V:1
 d2 | B3 e ^d2 | e2 e2 d d | d3 e ^c2 | d4 d d | d2 c2 c2 | c2 B2 e2 | A3 G F2 | G4 :| %9
w: Full|bags, a brisk|bot- tle, and a|beau- ti- ful|face, are the|three great- est|bles- sings poor|mor- tals em-|brace,|
V:2
 D D | G3 A B2 | E2 E2 F2 | G2 E2 A2 | D4 B B | B3 c A2 | A2 AB AG | F3 A Bc | B4 :| %9
w: but a-|las, we grow|muck- worms if|bags do but|fill, and a|bo- ny gay|dame of- * ten _|ends in a _|pill:|
V:3
 B2 | e2 e2 B2 | G2 E2 A2 | A>B A3/2 G/ FG | F4 D D | E2 E2 E2 | F2 G2 C2 | D3 C D2 | G4 :| %9
w: then|hey for brisk|clar- et whose|plea- * * sures ne'er _|waste, by a|bum- per we're|rich, and by|two we are|chaste.|

